src/css/svg/mapboxgl-ctrl-zoom-in.svg

<svg viewBox='0 0 20 20' xmlns='http://www.w3.org/2000/svg'>
  <path style='fill:#333333;' d='M 10 6 C 9.446 6 9 6.4459904 9 7 L 9 9 L 7 9 C 6.446 9 6 9.446 6 10 C 6 10.554 6.446 11 7 11 L 9 11 L 9 13 C 9 13.55401 9.446 14 10 14 C 10.554 14 11 13.55401 11 13 L 11 11 L 13 11 C 13.554 11 14 10.554 14 10 C 14 9.446 13.554 9 13 9 L 11 9 L 11 7 C 11 6.4459904 10.554 6 10 6 z' />
</svg>

<svg xmlns="http://www.w3.org/2000/svg" viewBox="0 0 20 20"><path d="M10 6a1.08 1.08 0 0 0-1 1v2H7a1.08 1.08 0 0 0-1 1 1.08 1.08 0 0 0 1 1h2v2a1.08 1.08 0 0 0 1 1 1.08 1.08 0 0 0 1-1v-2h2a1.08 1.08 0 0 0 1-1 1.08 1.08 0 0 0-1-1h-2V7a1.08 1.08 0 0 0-1-1z"/></svg>
